src/assets/img/providers-white/ctinteractive.svg

<svg width="144" height="28" viewBox="0 0 144 28" fill="none" xmlns="http://www.w3.org/2000/svg">
<g clip-path="url(#clip0_4132_8177)">
<path fill-rule="evenodd" clip-rule="evenodd" d="M12.0632 6.72645L7.90237 6.71525C7.5365 6.71525 7.48237 6.58645 7.73997 6.32885L13.0936 0.997653C13.4403 0.652607 13.9097 0.458984 14.3995 0.458984C14.8894 0.458984 15.36 0.652607 15.7088 0.997653L21.1744 6.42965C21.3461 6.60139 21.3106 6.68912 21.068 6.69285C20.6516 6.69817 20.2183 6.69212 19.7779 6.68597C16.5104 6.64032 12.8554 6.58926 12.8752 11.1393C12.8826 12.8006 12.8658 14.3966 12.8248 15.9273C12.6804 21.556 16.652 21.3466 20.8669 21.1243L20.9784 21.1185C21.348 21.0961 21.4021 21.2174 21.1408 21.4825L15.664 26.9313C15.3338 27.2599 14.8871 27.4445 14.4219 27.4445C13.9568 27.4445 13.5113 27.2599 13.1832 26.9313L1.38957 15.1321C1.22776 14.97 1.09962 14.7774 1.01255 14.5656C0.925472 14.3537 0.881179 14.1268 0.88222 13.8977C0.883261 13.6687 0.929616 13.4421 1.01861 13.2311C1.10761 13.02 1.23749 12.8287 1.40077 12.6681L4.41357 9.70566C4.55544 9.56379 4.72904 9.49099 4.93437 9.48726L9.36397 9.40885C10.2674 9.39392 11.0384 9.06539 11.6768 8.42325C12.0389 8.06112 12.2946 7.80352 12.444 7.65045C13.0562 7.03445 12.9293 6.72645 12.0632 6.72645ZM23.0606 9.47531H23.0606L23.0608 9.47531L23.0609 9.47531L23.061 9.47532L23.0612 9.47532L23.0613 9.47532L23.0615 9.47533L23.0616 9.47533L23.0618 9.47533L23.062 9.47533L23.0622 9.47534L23.0624 9.47534L23.0625 9.47534L23.0627 9.47535C23.3316 9.47945 23.6001 9.48355 23.868 9.48718C24.0587 9.49075 24.241 9.56684 24.3776 9.69998L27.424 12.6624C27.5947 12.8287 27.7305 13.0274 27.8234 13.2468C27.9164 13.4661 27.9645 13.7017 27.965 13.9397C27.9655 14.1777 27.9184 14.4132 27.8265 14.6324C27.7345 14.8515 27.5996 15.05 27.4296 15.216L24.372 18.2064C24.2189 18.3557 24.0341 18.4304 23.8176 18.4304L17.8592 18.4136C16.6944 18.4098 16.1008 17.8274 16.0784 16.6664C16.0411 14.9117 16.0411 13.1141 16.0784 11.2736C16.1008 10.1797 16.6347 9.59918 17.68 9.53198C19.434 9.41992 21.2558 9.44774 23.0606 9.47531ZM21.8878 11.1979C21.8879 11.1766 21.8837 11.1555 21.8756 11.1357C21.8675 11.116 21.8556 11.0981 21.8406 11.0829C21.8256 11.0678 21.8077 11.0558 21.788 11.0475C21.7684 11.0393 21.7473 11.035 21.7259 11.035L20.4827 11.0306C20.4614 11.0305 20.4403 11.0346 20.4205 11.0427C20.4008 11.0508 20.3829 11.0627 20.3677 11.0778C20.3526 11.0928 20.3406 11.1107 20.3324 11.1303C20.3241 11.15 20.3199 11.1711 20.3198 11.1924L20.3154 12.4356C20.3153 12.457 20.3195 12.4781 20.3276 12.4978C20.3357 12.5176 20.3476 12.5355 20.3626 12.5506C20.3776 12.5658 20.3955 12.5778 20.4151 12.586C20.4348 12.5942 20.4559 12.5985 20.4773 12.5986L21.7205 12.603C21.7418 12.603 21.7629 12.5989 21.7826 12.5908C21.8024 12.5827 21.8203 12.5708 21.8355 12.5558C21.8506 12.5408 21.8626 12.5229 21.8708 12.5032C21.8791 12.4836 21.8833 12.4624 21.8834 12.4411L21.8878 11.1979ZM21.8831 13.8258C21.8831 13.7964 21.8772 13.7673 21.8659 13.7401C21.8546 13.713 21.8381 13.6883 21.8172 13.6676C21.7964 13.6468 21.7717 13.6303 21.7445 13.6191C21.7173 13.6079 21.6882 13.6022 21.6587 13.6022L20.5387 13.6041C20.5093 13.6042 20.4802 13.61 20.453 13.6213C20.4259 13.6326 20.4012 13.6492 20.3805 13.67C20.3597 13.6909 20.3432 13.7156 20.332 13.7428C20.3208 13.77 20.3151 13.7991 20.3151 13.8285L20.3201 16.6509C20.3201 16.6803 20.326 16.7095 20.3373 16.7366C20.3486 16.7638 20.3651 16.7884 20.3859 16.8092C20.4068 16.83 20.4315 16.8464 20.4587 16.8576C20.4859 16.8688 20.515 16.8746 20.5445 16.8745L21.6645 16.8726C21.6939 16.8726 21.723 16.8667 21.7501 16.8554C21.7773 16.8441 21.802 16.8276 21.8227 16.8067C21.8435 16.7859 21.8599 16.7612 21.8712 16.734C21.8824 16.7068 21.8881 16.6777 21.8881 16.6482L21.8831 13.8258ZM36.4288 16.0558C35.6037 16.0596 35.1893 15.6489 35.1856 14.8238V12.8862C35.1818 12.05 35.5981 11.6318 36.4344 11.6318H40.192C40.2778 11.6318 40.3208 11.5908 40.3208 11.5086L40.3488 9.66065C40.3489 9.61945 40.3333 9.57975 40.3052 9.5496C40.2772 9.51945 40.2387 9.50109 40.1976 9.49825C37.9464 9.34891 36.1768 9.40491 34.8888 9.66625C32.3578 10.1872 32.5264 13.0517 32.6489 15.1332C32.6567 15.2669 32.6644 15.3974 32.6712 15.5238C32.8346 18.6477 36.0317 18.5393 38.5131 18.4551C39.0921 18.4354 39.6321 18.4171 40.0856 18.4414C40.1171 18.4438 40.1488 18.4395 40.1786 18.429C40.2084 18.4185 40.2358 18.402 40.2589 18.3804C40.282 18.3589 40.3005 18.3328 40.313 18.3038C40.3256 18.2748 40.3321 18.2435 40.332 18.2118V16.2406C40.332 16.1916 40.3125 16.1446 40.2778 16.11C40.2432 16.0753 40.1962 16.0558 40.1472 16.0558H36.4288ZM46.66 11.8782V18.223C46.66 18.248 46.6551 18.2728 46.6455 18.2959C46.6359 18.319 46.6219 18.34 46.6042 18.3577C46.5865 18.3753 46.5656 18.3894 46.5424 18.3989C46.5194 18.4085 46.4946 18.4134 46.4696 18.4134L44.3136 18.419C44.2886 18.419 44.2638 18.4141 44.2407 18.4045C44.2176 18.395 44.1966 18.381 44.179 18.3633C44.1613 18.3456 44.1472 18.3246 44.1377 18.3015C44.1281 18.2784 44.1232 18.2536 44.1232 18.2286L44.1288 11.8838C44.1288 11.8333 44.1087 11.7849 44.073 11.7492C44.0373 11.7135 43.9889 11.6934 43.9384 11.6934L41.4912 11.7046C41.4657 11.7046 41.4405 11.6995 41.417 11.6896C41.3935 11.6797 41.3723 11.6652 41.3545 11.6469C41.3368 11.6286 41.3229 11.607 41.3136 11.5832C41.3044 11.5595 41.3 11.5341 41.3008 11.5086L41.3344 9.63824C41.3358 9.58872 41.3565 9.54171 41.3921 9.50721C41.4276 9.4727 41.4752 9.45341 41.5248 9.45344H49.264C49.3145 9.45344 49.3629 9.4735 49.3986 9.5092C49.4343 9.54491 49.4544 9.59334 49.4544 9.64384V11.5086C49.4544 11.5591 49.4343 11.6076 49.3986 11.6433C49.3629 11.679 49.3145 11.699 49.264 11.699L46.8504 11.6878C46.7999 11.6878 46.7515 11.7079 46.7158 11.7436C46.68 11.7793 46.66 11.8277 46.66 11.8782ZM54.4272 9.47039H56.6112C56.7256 9.47039 56.8184 9.56316 56.8184 9.67759V18.2008C56.8184 18.3152 56.7256 18.408 56.6112 18.408H54.4272C54.3127 18.408 54.22 18.3152 54.22 18.2008V9.67759C54.22 9.56316 54.3127 9.47039 54.4272 9.47039ZM64.86 14.8072V9.65517C64.86 9.51703 64.929 9.44797 65.0672 9.44797L67.0776 9.47037C67.2792 9.47037 67.38 9.57303 67.38 9.77837L67.3856 18.0608C67.3856 18.1543 67.3484 18.2441 67.2822 18.3102C67.2161 18.3764 67.1263 18.4136 67.0328 18.4136H63.9808C63.7418 18.4136 63.5738 18.3034 63.4768 18.0832L61.4104 13.3848C61.2237 12.9592 61.1304 12.9797 61.1304 13.4464L61.1472 18.2064C61.1472 18.2343 61.1417 18.262 61.131 18.2878C61.1203 18.3136 61.1046 18.3371 61.0848 18.3568C61.0651 18.3766 61.0416 18.3923 61.0158 18.403C60.99 18.4137 60.9623 18.4192 60.9344 18.4192L58.812 18.4248C58.644 18.4248 58.56 18.3408 58.56 18.1728V9.84557C58.56 9.59543 58.685 9.47037 58.9352 9.47037L61.9424 9.46477C62.1701 9.46103 62.3288 9.56557 62.4184 9.77837L64.6136 14.8576C64.7778 15.2421 64.86 15.2253 64.86 14.8072ZM73.8367 18.2398L73.8312 11.8894C73.8312 11.8644 73.8361 11.8397 73.8456 11.8166C73.8552 11.7935 73.8692 11.7725 73.8869 11.7548C73.9046 11.7371 73.9256 11.7231 73.9487 11.7135C73.9718 11.704 73.9965 11.699 74.0215 11.699L76.3455 11.6822C76.3951 11.6808 76.4421 11.6601 76.4766 11.6245C76.5111 11.589 76.5304 11.5414 76.5303 11.4918L76.4967 9.63824C76.4953 9.58872 76.4746 9.54171 76.439 9.50721C76.4035 9.4727 76.3559 9.45341 76.3064 9.45344L68.6847 9.46464C68.6343 9.46464 68.5858 9.4847 68.5501 9.5204C68.5144 9.55611 68.4943 9.60454 68.4943 9.65504V11.503C68.4943 11.5535 68.5144 11.602 68.5501 11.6377C68.5858 11.6734 68.6343 11.6934 68.6847 11.6934H70.9696C71.0201 11.6934 71.0685 11.7135 71.1042 11.7492C71.1399 11.7849 71.16 11.8333 71.16 11.8838V18.223C71.16 18.2735 71.18 18.322 71.2157 18.3577C71.2514 18.3934 71.2999 18.4134 71.3503 18.4134L73.6463 18.4302C73.6968 18.4302 73.7453 18.4102 73.781 18.3745C73.8167 18.3388 73.8367 18.2903 73.8367 18.2398ZM80.3552 16.0952L84.1576 16.112C84.217 16.112 84.2739 16.1356 84.3159 16.1776C84.358 16.2196 84.3816 16.2766 84.3816 16.336L84.3984 18.1896C84.3984 18.249 84.3748 18.306 84.3327 18.348C84.2907 18.39 84.2338 18.4136 84.1744 18.4136H77.8016C77.7421 18.4136 77.6852 18.39 77.6432 18.348C77.6012 18.306 77.5776 18.249 77.5776 18.1896L77.6056 9.67197C77.6056 9.61256 77.6292 9.55558 77.6712 9.51358C77.7132 9.47157 77.7701 9.44797 77.8296 9.44797L84.0792 9.47597C84.1386 9.47597 84.1955 9.49957 84.2375 9.54158C84.2796 9.58358 84.3032 9.64056 84.3032 9.69997L84.3144 11.4584C84.3144 11.5178 84.2908 11.5748 84.2487 11.6168C84.2067 11.6588 84.1498 11.6824 84.0904 11.6824L80.3664 11.6992C80.3089 11.7006 80.2542 11.7241 80.2135 11.7647C80.1728 11.8054 80.1494 11.8601 80.148 11.9176L80.1368 12.7912C80.136 12.8211 80.1413 12.8508 80.1522 12.8786C80.1631 12.9064 80.1795 12.9318 80.2003 12.9532C80.2212 12.9746 80.2462 12.9916 80.2737 13.0032C80.3013 13.0148 80.3309 13.0208 80.3608 13.0208H82.8584C82.9178 13.0208 82.9747 13.0444 83.0167 13.0864C83.0588 13.1284 83.0824 13.1854 83.0824 13.2448L83.0712 14.6392C83.0712 14.6986 83.0476 14.7556 83.0056 14.7976C82.9635 14.8396 82.9066 14.8632 82.8472 14.8632L80.3664 14.852C80.3079 14.8519 80.2518 14.8748 80.2099 14.9156C80.1681 14.9564 80.1438 15.0119 80.1423 15.0704L80.1312 15.8656C80.1304 15.8955 80.1357 15.9252 80.1466 15.953C80.1575 15.9808 80.1739 16.0062 80.1947 16.0276C80.2156 16.049 80.2406 16.066 80.2681 16.0776C80.2957 16.0892 80.3253 16.0952 80.3552 16.0952ZM87.8704 18.3069L87.8872 15.8485C87.8872 15.4267 88.0216 15.3781 88.2904 15.7029L90.3624 18.1725C90.4968 18.3331 90.6704 18.4152 90.8832 18.4189L93.168 18.4357C93.2147 18.4358 93.2605 18.4225 93.3 18.3975C93.3396 18.3725 93.3711 18.3368 93.3911 18.2945C93.4111 18.2523 93.4186 18.2052 93.4128 18.1588C93.407 18.1124 93.3881 18.0686 93.3584 18.0325L91.5496 15.8205C91.4152 15.6563 91.4469 15.5387 91.6448 15.4677C93.4106 14.8256 94.0266 13.4424 93.4928 11.3181C93.1829 10.0973 92.3112 9.47946 90.8776 9.46452C89.1117 9.44586 87.3645 9.44773 85.636 9.47013C85.412 9.47013 85.3 9.58212 85.3 9.80612L85.3056 18.1669C85.3056 18.3275 85.3858 18.4077 85.5464 18.4077L87.7472 18.4301C87.7798 18.4301 87.8112 18.4171 87.8343 18.394C87.8574 18.3709 87.8704 18.3396 87.8704 18.3069ZM87.8088 13.2725L87.82 11.9733C87.82 11.9288 87.8377 11.886 87.8692 11.8545C87.9007 11.823 87.9434 11.8053 87.988 11.8053L89.976 11.8221C90.2206 11.8241 90.4547 11.9036 90.6269 12.0432C90.7991 12.1828 90.8953 12.3712 90.8944 12.5669V12.7237C90.8939 12.821 90.8695 12.9171 90.8225 13.0066C90.7756 13.0961 90.7069 13.1773 90.6206 13.2454C90.5342 13.3136 90.4318 13.3674 90.3193 13.4037C90.2068 13.4401 90.0863 13.4583 89.9648 13.4573L87.9768 13.4405C87.9322 13.4405 87.8895 13.4228 87.858 13.3913C87.8265 13.3598 87.8088 13.3171 87.8088 13.2725ZM99.5016 12.6116C99.4823 12.563 99.4491 12.5213 99.406 12.4916C99.363 12.462 99.3121 12.4459 99.2598 12.4453C99.2076 12.4447 99.1563 12.4596 99.1126 12.4883C99.0689 12.5169 99.0347 12.5579 99.0144 12.606L96.6008 18.2284C96.5896 18.2583 96.5672 18.2807 96.5336 18.2956C96.1677 18.445 95.3352 18.473 94.036 18.3796C93.9688 18.3722 93.9501 18.3386 93.98 18.2788L97.7824 10.2876C97.9158 10.0062 98.1264 9.76856 98.3899 9.60242C98.6533 9.43628 98.9586 9.3484 99.2705 9.34899C99.5825 9.34957 99.8881 9.4386 100.152 9.60573C100.416 9.77286 100.627 10.0113 100.762 10.2932L104.463 18.0828C104.48 18.1177 104.488 18.1564 104.485 18.1951C104.483 18.2339 104.47 18.2715 104.449 18.3045C104.428 18.3375 104.399 18.3647 104.364 18.3838C104.329 18.4028 104.29 18.4129 104.25 18.4132H98.1576C97.8888 18.4132 97.8085 18.29 97.9168 18.0436L98.4824 16.7836C98.5645 16.6044 98.7026 16.5148 98.8968 16.5148L100.706 16.5204C101.004 16.5204 101.096 16.3804 100.98 16.1004L99.5016 12.6116ZM107.935 16.0501C107.144 16.0501 106.748 15.6544 106.748 14.8629L106.742 12.8413C106.742 12.0349 107.146 11.6317 107.952 11.6317L111.754 11.6373C111.851 11.6373 111.9 11.5888 111.9 11.4917V9.6717C111.9 9.61527 111.878 9.56114 111.838 9.52123C111.798 9.48132 111.744 9.4589 111.687 9.4589C110.351 9.4589 108.99 9.46264 107.605 9.4701C105.481 9.48504 104.355 10.5248 104.228 12.5893C104.077 15.0589 103.903 18.2341 107.011 18.3741C108.568 18.445 110.14 18.4525 111.726 18.3965C111.842 18.3928 111.9 18.333 111.9 18.2173V16.2461C111.9 16.2204 111.895 16.1949 111.885 16.1711C111.875 16.1473 111.86 16.1257 111.841 16.1075C111.822 16.0893 111.8 16.0749 111.776 16.065C111.751 16.0552 111.725 16.0501 111.698 16.0501H107.935ZM118.138 11.8784V18.24C118.138 18.2905 118.118 18.3389 118.083 18.3746C118.047 18.4103 117.998 18.4304 117.948 18.4304L115.714 18.4192C115.689 18.4192 115.664 18.4142 115.641 18.4047C115.618 18.3951 115.597 18.3811 115.579 18.3634C115.561 18.3457 115.547 18.3247 115.538 18.3016C115.528 18.2785 115.523 18.2538 115.523 18.2288L115.529 11.8896C115.529 11.8646 115.524 11.8398 115.514 11.8167C115.505 11.7936 115.491 11.7726 115.473 11.7549C115.455 11.7373 115.434 11.7232 115.411 11.7137C115.388 11.7041 115.363 11.6992 115.338 11.6992L112.936 11.6824C112.885 11.6824 112.837 11.6623 112.801 11.6266C112.766 11.5909 112.746 11.5425 112.746 11.492L112.757 9.65517C112.757 9.60467 112.777 9.55624 112.813 9.52053C112.848 9.48483 112.897 9.46477 112.947 9.46477L120.67 9.44797C120.72 9.44797 120.769 9.46803 120.804 9.50373C120.84 9.53944 120.86 9.58787 120.86 9.63837L120.871 11.5144C120.871 11.5649 120.851 11.6133 120.815 11.649C120.78 11.6847 120.731 11.7048 120.681 11.7048L118.329 11.688C118.278 11.688 118.23 11.708 118.194 11.7437C118.158 11.7794 118.138 11.8279 118.138 11.8784ZM121.846 9.46492H124.086C124.166 9.46492 124.231 9.53011 124.231 9.61052V18.2793C124.231 18.3597 124.166 18.4249 124.086 18.4249H121.846C121.765 18.4249 121.7 18.3597 121.7 18.2793V9.61052C121.7 9.53011 121.765 9.46492 121.846 9.46492ZM130.022 15.6357C130.111 15.9269 130.201 15.9288 130.29 15.6413L132.166 9.6717C132.211 9.52984 132.308 9.4589 132.458 9.4589L135.039 9.4701C135.151 9.4701 135.189 9.52237 135.151 9.6269L132.234 18.1445C132.17 18.3274 132.039 18.4189 131.842 18.4189L128.526 18.4133C128.343 18.4133 128.222 18.3274 128.162 18.1557L125.122 9.5709C125.099 9.49997 125.125 9.4645 125.2 9.4645L128.022 9.4589C128.09 9.4589 128.133 9.49064 128.151 9.5541L130.022 15.6357ZM138.578 15.9045L138.595 15.0421C138.597 14.9911 138.618 14.9427 138.654 14.9071C138.691 14.8716 138.74 14.8517 138.791 14.8517H141.328C141.354 14.8517 141.38 14.8465 141.404 14.8363C141.428 14.8261 141.45 14.8111 141.469 14.7923C141.487 14.7735 141.501 14.7513 141.511 14.7268C141.52 14.7024 141.525 14.6763 141.524 14.6501L141.507 13.2165C141.507 13.1903 141.502 13.1643 141.492 13.1402C141.482 13.116 141.467 13.0942 141.448 13.0759C141.429 13.0576 141.407 13.0433 141.382 13.0338C141.358 13.0243 141.332 13.0198 141.306 13.0205L138.78 13.0317C138.728 13.0317 138.678 13.0111 138.641 12.9743C138.605 12.9375 138.584 12.8877 138.584 12.8357L138.573 11.8837C138.573 11.8317 138.593 11.7819 138.63 11.7451C138.667 11.7084 138.717 11.6877 138.769 11.6877L142.554 11.7101C142.606 11.7101 142.656 11.6895 142.693 11.6527C142.73 11.6159 142.75 11.5661 142.75 11.5141L142.756 9.6549C142.756 9.60292 142.735 9.55307 142.699 9.51631C142.662 9.47955 142.612 9.4589 142.56 9.4589H136.249C136.197 9.4589 136.147 9.47955 136.11 9.51631C136.073 9.55307 136.053 9.60292 136.053 9.6549V18.2173C136.053 18.2693 136.073 18.3191 136.11 18.3559C136.147 18.3927 136.197 18.4133 136.249 18.4133L142.644 18.4189C142.67 18.4189 142.695 18.4138 142.719 18.404C142.743 18.3941 142.764 18.3797 142.783 18.3615C142.801 18.3433 142.815 18.3217 142.825 18.2979C142.835 18.2741 142.84 18.2486 142.84 18.2229L142.834 16.2965C142.834 16.2445 142.814 16.1947 142.777 16.1579C142.74 16.1212 142.69 16.1005 142.638 16.1005L138.774 16.1061C138.748 16.1061 138.722 16.1009 138.698 16.0907C138.674 16.0805 138.652 16.0655 138.634 16.0467C138.615 16.0279 138.601 16.0057 138.592 15.9812C138.582 15.9568 138.578 15.9307 138.578 15.9045Z" fill="white"/>
</g>
<defs>
<clipPath id="clip0_4132_8177">
<rect width="142.24" height="28" fill="white" transform="translate(0.880005 0.000976562)"/>
</clipPath>
</defs>
</svg>

<svg width="144" height="28" fill="none" xmlns="http://www.w3.org/2000/svg"><g clip-path="url(#a)"><path fill-rule="evenodd" clip-rule="evenodd" d="m12.063 6.726-4.16-.01c-.366 0-.42-.13-.163-.387L13.094.998A1.85 1.85 0 0 1 14.4.459c.49 0 .96.194 1.309.539l5.465 5.432c.172.171.137.26-.106.263-.416.005-.85 0-1.29-.007-3.268-.046-6.923-.097-6.903 4.453.008 1.662-.01 3.258-.05 4.788-.145 5.629 3.827 5.42 8.042 5.197l.111-.005c.37-.023.424.098.163.364l-5.477 5.448c-.33.329-.777.514-1.242.514a1.75 1.75 0 0 1-1.239-.514L1.39 15.132a1.737 1.737 0 0 1 .01-2.464l3.014-2.962a.728.728 0 0 1 .52-.219l4.43-.078a3.222 3.222 0 0 0 2.313-.986c.362-.362.618-.62.767-.773.612-.616.485-.924-.38-.924Zm10.998 2.75h.001l.806.011a.75.75 0 0 1 .51.213l3.046 2.962a1.79 1.79 0 0 1 .402 1.97c-.091.22-.226.418-.396.584l-3.058 2.99a.765.765 0 0 1-.554.224l-5.959-.016c-1.165-.004-1.758-.587-1.78-1.748a129.943 129.943 0 0 1 0-5.392c.022-1.094.556-1.675 1.601-1.742 1.754-.112 3.576-.084 5.38-.057Zm-1.173 1.722a.162.162 0 0 0-.162-.163l-1.243-.004a.162.162 0 0 0-.163.161l-.005 1.244a.161.161 0 0 0 .1.15c.02.008.04.012.062.013l1.244.004a.163.163 0 0 0 .162-.162l.005-1.243Zm-.005 2.628a.223.223 0 0 0-.224-.224l-1.12.002a.225.225 0 0 0-.224.225l.005 2.822a.223.223 0 0 0 .224.224l1.12-.002a.223.223 0 0 0 .207-.139.225.225 0 0 0 .017-.086l-.005-2.822Zm14.546 2.23c-.825.004-1.24-.407-1.243-1.232v-1.938c-.004-.836.412-1.254 1.248-1.254h3.758c.086 0 .129-.041.129-.123l.028-1.848a.162.162 0 0 0-.151-.163c-2.252-.15-4.021-.093-5.31.168-2.53.521-2.362 3.386-2.24 5.467.009.134.016.264.023.39.164 3.125 3.36 3.016 5.842 2.932.58-.02 1.12-.038 1.573-.014a.228.228 0 0 0 .227-.137.229.229 0 0 0 .019-.092V16.24a.184.184 0 0 0-.185-.185H36.43Zm10.231-4.178v6.345a.19.19 0 0 1-.19.19l-2.156.006a.19.19 0 0 1-.19-.19l.005-6.345a.19.19 0 0 0-.19-.19l-2.448.01a.191.191 0 0 1-.19-.195l.033-1.87a.19.19 0 0 1 .19-.186h7.74a.19.19 0 0 1 .19.19v1.866a.19.19 0 0 1-.19.19l-2.414-.011a.19.19 0 0 0-.19.19Zm7.767-2.408h2.184c.115 0 .207.093.207.208V18.2a.207.207 0 0 1-.207.207h-2.184a.207.207 0 0 1-.207-.207V9.678c0-.115.093-.208.207-.208Zm10.433 5.337V9.655c0-.138.069-.207.207-.207l2.01.022c.202 0 .303.103.303.308l.006 8.283a.353.353 0 0 1-.353.353H63.98a.511.511 0 0 1-.504-.33l-2.067-4.7c-.186-.425-.28-.404-.28.062l.017 4.76a.213.213 0 0 1-.213.213l-2.122.006c-.168 0-.252-.084-.252-.252V9.846c0-.25.125-.376.375-.376l3.007-.005a.47.47 0 0 1 .476.313l2.196 5.08c.164.384.246.367.246-.05Zm8.977 3.433-.006-6.35a.191.191 0 0 1 .19-.191l2.325-.017a.19.19 0 0 0 .184-.19l-.033-1.854a.19.19 0 0 0-.19-.185l-7.622.012a.19.19 0 0 0-.19.19v1.848a.19.19 0 0 0 .19.19h2.285a.19.19 0 0 1 .19.19v6.34a.19.19 0 0 0 .19.19l2.296.017a.19.19 0 0 0 .19-.19Zm6.518-2.145 3.803.017a.224.224 0 0 1 .224.224l.016 1.854a.224.224 0 0 1-.224.224h-6.372a.224.224 0 0 1-.224-.224l.028-8.518a.224.224 0 0 1 .224-.224l6.25.028a.224.224 0 0 1 .223.224l.011 1.758a.224.224 0 0 1-.224.224l-3.724.017a.224.224 0 0 0-.218.219l-.011.873a.223.223 0 0 0 .224.23h2.497a.224.224 0 0 1 .224.224l-.01 1.394a.224.224 0 0 1-.225.224l-2.48-.011a.224.224 0 0 0-.225.218l-.01.796a.223.223 0 0 0 .223.23Zm7.515 2.212.017-2.458c0-.422.135-.47.403-.146l2.072 2.47c.135.16.308.242.521.246l2.285.017a.246.246 0 0 0 .19-.404L91.55 15.82c-.135-.164-.103-.281.095-.352 1.766-.642 2.382-2.026 1.848-4.15-.31-1.22-1.182-1.839-2.615-1.853a222.827 222.827 0 0 0-5.242.005c-.224 0-.336.112-.336.336l.006 8.36c0 .162.08.242.24.242l2.201.022a.123.123 0 0 0 .123-.123Zm-.061-5.034.011-1.3a.168.168 0 0 1 .168-.168l1.988.017c.245.002.479.082.65.221.173.14.27.328.268.524v.157a.613.613 0 0 1-.072.283.75.75 0 0 1-.201.238.964.964 0 0 1-.302.159 1.125 1.125 0 0 1-.354.053l-1.988-.017a.168.168 0 0 1-.168-.167Zm11.693-.661a.264.264 0 0 0-.488-.006l-2.413 5.622a.119.119 0 0 1-.067.068c-.366.149-1.199.177-2.498.084-.067-.008-.086-.041-.056-.101l3.802-7.991a1.64 1.64 0 0 1 1.489-.939 1.653 1.653 0 0 1 1.491.944l3.701 7.79a.226.226 0 0 1-.014.222.242.242 0 0 1-.199.109h-6.092c-.27 0-.35-.124-.241-.37l.565-1.26a.424.424 0 0 1 .415-.27l1.809.006c.298 0 .39-.14.274-.42l-1.478-3.488Zm8.433 3.438c-.791 0-1.187-.396-1.187-1.187l-.006-2.022c0-.806.404-1.21 1.21-1.21l3.802.006c.097 0 .146-.048.146-.145v-1.82a.212.212 0 0 0-.213-.213c-1.336 0-2.697.004-4.082.011-2.124.015-3.25 1.055-3.377 3.12-.151 2.469-.325 5.644 2.783 5.784 1.557.071 3.129.079 4.715.023.116-.004.174-.064.174-.18v-1.97a.193.193 0 0 0-.124-.182.212.212 0 0 0-.078-.015h-3.763Zm10.203-4.172v6.362c0 .05-.02.099-.055.135a.193.193 0 0 1-.135.055l-2.234-.01a.192.192 0 0 1-.191-.191l.006-6.34a.183.183 0 0 0-.015-.072.177.177 0 0 0-.041-.062.196.196 0 0 0-.135-.056l-2.402-.017a.19.19 0 0 1-.135-.055.193.193 0 0 1-.055-.135l.011-1.837a.19.19 0 0 1 .19-.19l7.723-.017c.05 0 .099.02.134.056a.19.19 0 0 1 .056.134l.011 1.876a.19.19 0 0 1-.19.19l-2.352-.016a.19.19 0 0 0-.191.19Zm3.708-2.413h2.24c.08 0 .145.065.145.146v8.668c0 .08-.065.146-.145.146h-2.24a.146.146 0 0 1-.146-.146V9.611c0-.08.065-.146.146-.146Zm8.176 6.17c.089.292.179.294.268.006l1.876-5.97c.045-.141.142-.212.292-.212l2.581.011c.112 0 .15.052.112.157l-2.917 8.518c-.064.182-.195.274-.392.274l-3.316-.006a.353.353 0 0 1-.364-.257l-3.04-8.585c-.023-.071.003-.107.078-.107l2.822-.005c.068 0 .111.032.129.095l1.871 6.082Zm8.556.27.017-.863a.2.2 0 0 1 .059-.135.198.198 0 0 1 .137-.055h2.537a.195.195 0 0 0 .141-.06.2.2 0 0 0 .055-.142l-.017-1.434a.2.2 0 0 0-.059-.14.194.194 0 0 0-.142-.056l-2.526.012a.197.197 0 0 1-.139-.058.199.199 0 0 1-.057-.138l-.011-.952a.195.195 0 0 1 .196-.196l3.785.022a.195.195 0 0 0 .196-.196l.006-1.86a.199.199 0 0 0-.057-.138.197.197 0 0 0-.139-.057h-6.311a.195.195 0 0 0-.196.196v8.562a.195.195 0 0 0 .196.196l6.395.006a.197.197 0 0 0 .196-.196l-.006-1.926a.195.195 0 0 0-.196-.197l-3.864.006a.195.195 0 0 1-.182-.125.201.201 0 0 1-.014-.076Z" fill="#fff"/></g><defs><clipPath id="a"><path fill="#fff" transform="translate(.88 .001)" d="M0 0h142.24v28H0z"/></clipPath></defs></svg>
